src/actions/22/notifications-disabled.svg

<svg width="22" height="22" version="1.1" xmlns="http://www.w3.org/2000/svg">
 <style id="current-color-scheme" type="text/css">.ColorScheme-Text {
            color:#363636;
        }
        .ColorScheme-NegativeText {
            color:#d19494;
        }</style>
 <path class="ColorScheme-Text" d="m11 3a1 1 0 0 0-0.994 1.1 4.988 4.988 0 0 0-4.006 4.9v4.5l-2 2v0.5h14v-0.5l-2-2v-4.5a4.987 4.987 0 0 0-4.006-4.9 1 1 0 0 0-0.994-1.1zm0 2a4 4 0 0 1 4 4v4.922l1 1.078h-10l1-1.078v-4.922a4 4 0 0 1 4-4zm-1.73 12a2 2 0 0 0 1.73 1 2 2 0 0 0 1.729-1z" fill="currentColor" opacity=".35"/>
 <rect class="ColorScheme-Text" transform="rotate(45)" x="4.5563" y="-.5" width="22" height="1" rx=".5" ry=".5" fill="currentColor"/>
</svg>

<svg xmlns="http://www.w3.org/2000/svg" width="22" height="22">
    <style id="current-color-scheme" type="text/css">
        .ColorScheme-Text{color:#050505;opacity:.7}
    </style>
    <path fill="currentColor" d="M11 3a1 1 0 0 0-.994 1.1A4.988 4.988 0 0 0 6 9v4.5l-2 2v.5h14v-.5l-2-2V9a4.987 4.987 0 0 0-4.006-4.9A1 1 0 0 0 11 3zm0 2a4 4 0 0 1 4 4v4.922L16 15H6l1-1.078V9a4 4 0 0 1 4-4zM9.27 17A2 2 0 0 0 11 18a2 2 0 0 0 1.729-1z" class="ColorScheme-Text" opacity=".35"/>
    <rect width="22" height="1" x="4.556" y="-.5" fill="currentColor" class="ColorScheme-Text" rx=".5" ry=".5" transform="rotate(45)"/>
</svg>
